X: 10
T: Whether I like it or not
M: 3/4
L: 1/8
B: The Orography of Thoinot Arbeau (Lengres, France, 1589)
F: http: //graner.net/nicolas/arbeau/orcheso.abc
R: gaillarde
N: for more information: http://graner.net/nicolas/arbeau/
Z: Nicolas Graner <arbeau@graner.name> Sep. 2001
K: F
A2 A2 A2 z2 A2 A2 | F2 G2 A2 z2 B2 B2 | A2 G2 A2 F2 z2 G2 | F2 F2 E2 F2 z2 F2 |
 A2 G2 A2 F2 z2 F2 | D2 E2 F2 G2 z2 G2 | A2 G2 A2 F2 z2 G2 | F2 F2 E2 F2 z2 F2 ||

